Papirus/64x64/apps/mrboom.svg

<?xml version="1.0" encoding="UTF-8" standalone="no"?>
<svg
   id="_图层_1"
   version="1.1"
   viewBox="0 0 64 64" width="64" height="64"
   sodipodi:docname="mrboom.svg"
   xml:space="preserve"
   inkscape:version="1.4 (e7c3feb100, 2024-10-09)"
   xmlns:inkscape="http://www.inkscape.org/namespaces/inkscape"
   xmlns:sodipodi="http://sodipodi.sourceforge.net/DTD/sodipodi-0.dtd"
   xmlns="http://www.w3.org/2000/svg"
   xmlns:svg="http://www.w3.org/2000/svg"><sodipodi:namedview
     id="namedview26"
     pagecolor="#505050"
     bordercolor="#eeeeee"
     borderopacity="1"
     inkscape:showpageshadow="0"
     inkscape:pageopacity="0"
     inkscape:pagecheckerboard="0"
     inkscape:deskcolor="#505050"
     inkscape:zoom="8.453125"
     inkscape:cx="32"
     inkscape:cy="32"
     inkscape:window-width="1421"
     inkscape:window-height="796"
     inkscape:window-x="751"
     inkscape:window-y="88"
     inkscape:window-maximized="0"
     inkscape:current-layer="_图层_1" /><!-- Generator: Adobe Illustrator 29.0.1, SVG Export Plug-In . SVG Version: 2.1.0 Build 192)  --><defs
     id="defs6"><style
       id="style1">
      .st0 {
        fill-opacity: .5;
      }

      .st0, .st1, .st2, .st3, .st4, .st5, .st6, .st7 {
        fill: #fff;
      }

      .st8 {
        fill: #133c9a;
      }

      .st2, .st9 {
        display: none;
      }

      .st3 {
        fill-opacity: .2;
      }

      .st4 {
        fill-opacity: .9;
      }

      .st10 {
        fill: #3370ff;
      }

      .st11 {
        fill: url(#_未命名的渐变_3);
      }

      .st12 {
        fill: url(#_未命名的渐变);
      }

      .st5 {
        fill-opacity: .3;
      }

      .st6 {
        fill-opacity: 0;
      }

      .st7 {
        fill-opacity: .7;
      }

      .st13 {
        fill: #00d6b9;
      }

      .st14 {
        fill: url(#_未命名的渐变_2);
      }
    </style><radialGradient
       id="_未命名的渐变"
       data-name="未命名的渐变"
       cx="123.9"
       cy="-40.2"
       fx="123.9"
       fy="-40.2"
       r="59.4"
       gradientTransform="translate(-26.8 25.5) scale(.6 -.7)"
       gradientUnits="userSpaceOnUse"><stop
         offset="0"
         stop-color="#db202e"
         id="stop1" /><stop
         offset="1"
         stop-color="#e01b24"
         id="stop2" /></radialGradient><radialGradient
       id="_未命名的渐变_2"
       data-name="未命名的渐变 2"
       cx="67.6"
       cy="26.8"
       fx="67.6"
       fy="26.8"
       r="105.2"
       gradientTransform="translate(-26.6 25.3) scale(.6 -.7)"
       gradientUnits="userSpaceOnUse"><stop
         offset="0"
         stop-color="#ffb648"
         id="stop3" /><stop
         offset="1"
         stop-color="#ff7800"
         stop-opacity="0"
         id="stop4" /></radialGradient><radialGradient
       id="_未命名的渐变_3"
       data-name="未命名的渐变 3"
       cx="61.7"
       cy="18.6"
       fx="61.7"
       fy="18.6"
       r="68"
       gradientTransform="translate(-26.8 25.8) scale(.6 -.7)"
       gradientUnits="userSpaceOnUse"><stop
         offset="0"
         stop-color="#c64600"
         id="stop5" /><stop
         offset="1"
         stop-color="#a51d2d"
         id="stop6" /></radialGradient></defs><path
     class="st1"
     d="M47.5,64.1H13.8c-7.6,0-13.8-6.3-13.8-13.8V13.7C0,6.2,6.2,0,13.7,0h36.6c7.5,0,13.7,6.2,13.7,13.7v36.6c0,7.5-6.2,13.7-13.7,13.7h-2.9.1Z"
     id="path6"
     style="fill:#f9f9f9;fill-opacity:1" /><g
     id="g36"
     transform="matrix(0.86691312,0,0,0.82459048,6.9796673,5.4948054)"><path
       style="opacity:0.2"
       d="M 23,4 V 7 H 39 V 4 Z m 16,3 v 3 h 3 V 7 Z m 3,3 v 3 h 3 v 14 h 3 V 16 h 5 V 13 H 48 V 8 h -3 v 2 z m 6,-2 h 5 V 5 h -5 z m 5,0 v 5 h 3 V 8 Z m -8,19 h -3 v 3 h -3 v 3 H 41.800781 45 47 v 14 h 3 V 33 h -2 v -3 h -3 z m 2,20 H 19 17 V 36 h -3 v 11 h -3 v 3 h 6 v 3 h -6 v 2 H 8 v 3 h 3 v 3 h 36 v -3 h 3 v -3 h -3 v -2 h -5 v -3 h 5 z M 11,47 V 36 H 8 v 11 z m 0,-11 h 3 v -3 h -3 z m 3,-3 h 3 v -3 h -3 z m 0,-3 V 16 h -3 v 14 z m 0,-14 h 3 v -6 h -3 z m 3,-6 h 6 V 7 h -6 z m 0,23 v 3 h 22 v -3 z"
       id="path1" /><path
       style="fill:#3f3f3f"
       d="M 23,3 V 6 H 39 V 3 Z m 16,3 v 3 h 3 V 6 Z m 3,3 v 3 h 3 v 14 h 3 V 15 h 5 V 12 H 48 V 7 h -3 v 2 z m 6,-2 h 5 V 4 h -5 z m 5,0 v 5 h 3 V 7 Z m -8,19 h -3 v 3 h -3 v 3 H 41.800781 45 47 v 14 h 3 V 32 h -2 v -3 h -3 z m 2,20 H 19 17 V 35 h -3 v 11 h -3 v 3 h 6 v 3 h -6 v 2 H 8 v 3 h 3 v 3 h 36 v -3 h 3 v -3 h -3 v -2 h -5 v -3 h 5 z M 11,46 V 35 H 8 v 11 z m 0,-11 h 3 v -3 h -3 z m 3,-3 h 3 v -3 h -3 z m 0,-3 V 15 h -3 v 14 z m 0,-14 h 3 V 9 h -3 z m 3,-6 h 6 V 6 h -6 z m 0,23 v 3 h 22 v -3 z"
       id="path2" /><path
       style="opacity:0.1;fill:#ffffff"
       d="M 23,3 V 4 H 39 V 3 Z m 25,1 v 1 h 5 V 4 Z M 17,6 v 1 h 6 V 6 Z m 22,0 v 1 h 3 V 6 Z m 6,1 v 1 h 3 V 7 Z m 8,0 v 1 h 3 V 7 Z M 14,9 v 1 h 3 V 9 Z m 28,0 v 1 h 3 V 9 Z m 6,3 v 1 h 5 v -1 z m -37,3 v 1 h 3 v -1 z m 31,11 v 1 h 3 v -1 z m -28,3 v 1 h 3 v -1 z m 25,0 v 1 h 3 v -1 z m 6,0 v 1 h 3 v -1 z m -34,3 v 1 h 3 v -1 z m 6,0 v 1 h 22 v -1 z m 31,0 v 1 h 2 V 32 Z M 8,35 v 1 h 3 v -1 z m 6,0 v 1 h 3 v -1 z m -3,11 v 1 h 3 v -1 z m 6,0 v 1 h 2 28 V 46 H 19 Z m -6,6 v 1 h 6 v -1 z m 31,0 v 1 h 5 V 52 Z M 8,54 v 1 h 3 v -1 z m 39,0 v 1 h 3 v -1 z"
       id="path3" /><path
       style="fill:#df574d"
       d="m 14,15 v 14 h 19 v -3 h 3 v -8 h -3 v -3 z m 0,17 v 3 h 3 v -3 z m 25,0 v 3 h 3 v -3 z"
       id="path4-3" /><path
       style="fill:#ff90b8"
       d="m 48,7 v 5 h 5 V 7 Z M 17,18 v 8 h 16 v -8 z"
       id="path5-7" /><path
       style="fill:#cccccc"
       d="m 23,6 v 3 h 3 V 6 Z m 11,0 v 3 h 5 V 6 Z m 5,3 v 3 h 3 V 9 Z m 3,3 v 3 h 3 V 12 Z M 17,9 v 3 h 3 V 9 Z m 25,14 v 3 h 3 v -3 z"
       id="path6-5" /><path
       style="fill:#eeeeee"
       d="m 23,9 v 3 h -3 v 3 h 3 13 v 11 3 h 3 v -3 h 3 V 12 H 36 V 9 Z M 36,29 H 20 v 3 h 16 z"
       id="path7-9" /><path
       style="opacity:0.2"
       d="m 17,19 v 8 h 3 v -8 z m 10,0 v 8 h 3 v -8 z"
       id="path8-2" /><path
       style="fill:#3f3f3f"
       d="m 17,18 v 8 h 3 v -8 z m 10,0 v 8 h 3 v -8 z"
       id="path9" /><path
       style="fill:#ff90b8"
       d="m 17,55 v 3 h 8 v -3 z m 11,0 v 3 h 11 v -3 z"
       id="path10" /><path
       style="fill:#50beee"
       d="m 20,35 v 2 3 3 3 H 30 V 43 H 23.636364 V 40 H 30 v -3 -2 z"
       id="path11" /><path
       style="fill:#248afd"
       d="m 17,35 v 5 h 3 v -5 z m 13,0 v 5 h 6 v -5 z m -13,8 v 3 h 3 v -3 z m 13,0 v 3 h 6 v -3 z"
       id="path12" /><path
       style="opacity:0.2"
       d="m 36,36 v 5 H 26 v 3 h 10 v 3 h 3 8 v -3 -3 h -8 v -5 z m -25,5 v 3 h 9 v -3 z"
       id="path13" /><path
       style="fill:#008080"
       d="m 36,35 v 5 H 26 v 3 h 10 v 3 h 3 8 v -3 -3 h -8 v -5 z m -25,5 v 3 h 9 v -3 z"
       id="path14" /><path
       style="opacity:0.1"
       d="m 26,7 v 3 h 8 V 7 Z m -6,3 v 3 h 3 v -3 z m 0,3 h -3 v 3 h 3 z m 16,-3 v 3 h 3 v -3 z m -3,6 v 3 h 3 v -3 z m 9,0 v 8 h 3 v -8 z m -9,11 v 3 h 3 v -3 z m 3,3 v 3 h 3 v -3 z m 3,0 h 3 v -3 h -3 z m -22,0 v 3 h 3 v -3 z m 25,3 v 3 h -3 v 5 h 3 3 2 v -5 -3 h -2 z m -31,3 v 5 h 3 v -5 z m 9,2 v 3 3 h 3 3 v -3 h -3 v -3 z m -9,6 v 3 h 3 v -3 z m 8,6 v 3 h 3 3 v -3 h -3 z m 9,0 v 3 h 6 5 v -3 h -5 z"
       id="path15" /><path
       style="fill:#79de7d"
       d="m 26,6 v 3 h 8 V 6 Z m -6,3 v 3 h 3 V 9 Z m 0,3 h -3 v 3 h 3 z M 36,9 v 3 h 3 V 9 Z m -3,6 v 3 h 3 v -3 z m 9,0 v 8 h 3 v -8 z m -9,11 v 3 h 3 v -3 z m 3,3 v 3 h 3 v -3 z m 3,0 h 3 v -3 h -3 z m -22,0 v 3 h 3 v -3 z m 25,3 v 3 h -3 v 5 h 3 3 2 v -5 -3 h -2 z m -31,3 v 5 h 3 v -5 z m 9,2 v 3 3 h 3 3 v -3 h -3 v -3 z m -9,6 v 3 h 3 v -3 z m 8,6 v 3 h 3 3 v -3 h -3 z m 9,0 v 3 h 6 5 v -3 h -5 z"
       id="path16" /></g></svg>

<svg xmlns="http://www.w3.org/2000/svg" width="64" height="64" version="1.1">
 <path style="opacity:0.2" d="M 23,4 V 7 H 39 V 4 Z m 16,3 v 3 h 3 V 7 Z m 3,3 v 3 h 3 v 14 h 3 V 16 h 5 V 13 H 48 V 8 h -3 v 2 z m 6,-2 h 5 V 5 h -5 z m 5,0 v 5 h 3 V 8 Z m -8,19 h -3 v 3 h -3 v 3 H 41.800781 45 47 v 14 h 3 V 33 h -2 v -3 h -3 z m 2,20 H 19 17 V 36 h -3 v 11 h -3 v 3 h 6 v 3 h -6 v 2 H 8 v 3 h 3 v 3 h 36 v -3 h 3 v -3 h -3 v -2 h -5 v -3 h 5 z M 11,47 V 36 H 8 v 11 z m 0,-11 h 3 v -3 h -3 z m 3,-3 h 3 v -3 h -3 z m 0,-3 V 16 h -3 v 14 z m 0,-14 h 3 v -6 h -3 z m 3,-6 h 6 V 7 h -6 z m 0,23 v 3 h 22 v -3 z"/>
 <path style="fill:#3f3f3f" d="M 23,3 V 6 H 39 V 3 Z m 16,3 v 3 h 3 V 6 Z m 3,3 v 3 h 3 v 14 h 3 V 15 h 5 V 12 H 48 V 7 h -3 v 2 z m 6,-2 h 5 V 4 h -5 z m 5,0 v 5 h 3 V 7 Z m -8,19 h -3 v 3 h -3 v 3 H 41.800781 45 47 v 14 h 3 V 32 h -2 v -3 h -3 z m 2,20 H 19 17 V 35 h -3 v 11 h -3 v 3 h 6 v 3 h -6 v 2 H 8 v 3 h 3 v 3 h 36 v -3 h 3 v -3 h -3 v -2 h -5 v -3 h 5 z M 11,46 V 35 H 8 v 11 z m 0,-11 h 3 v -3 h -3 z m 3,-3 h 3 v -3 h -3 z m 0,-3 V 15 h -3 v 14 z m 0,-14 h 3 V 9 h -3 z m 3,-6 h 6 V 6 h -6 z m 0,23 v 3 h 22 v -3 z"/>
 <path style="fill:#ffffff;opacity:0.1" d="M 23 3 L 23 4 L 39 4 L 39 3 L 23 3 z M 48 4 L 48 5 L 53 5 L 53 4 L 48 4 z M 17 6 L 17 7 L 23 7 L 23 6 L 17 6 z M 39 6 L 39 7 L 42 7 L 42 6 L 39 6 z M 45 7 L 45 8 L 48 8 L 48 7 L 45 7 z M 53 7 L 53 8 L 56 8 L 56 7 L 53 7 z M 14 9 L 14 10 L 17 10 L 17 9 L 14 9 z M 42 9 L 42 10 L 45 10 L 45 9 L 42 9 z M 48 12 L 48 13 L 53 13 L 53 12 L 48 12 z M 11 15 L 11 16 L 14 16 L 14 15 L 11 15 z M 42 26 L 42 27 L 45 27 L 45 26 L 42 26 z M 14 29 L 14 30 L 17 30 L 17 29 L 14 29 z M 39 29 L 39 30 L 42 30 L 42 29 L 39 29 z M 45 29 L 45 30 L 48 30 L 48 29 L 45 29 z M 11 32 L 11 33 L 14 33 L 14 32 L 11 32 z M 17 32 L 17 33 L 39 33 L 39 32 L 17 32 z M 48 32 L 48 33 L 50 33 L 50 32 L 48 32 z M 8 35 L 8 36 L 11 36 L 11 35 L 8 35 z M 14 35 L 14 36 L 17 36 L 17 35 L 14 35 z M 11 46 L 11 47 L 14 47 L 14 46 L 11 46 z M 17 46 L 17 47 L 19 47 L 47 47 L 47 46 L 19 46 L 17 46 z M 11 52 L 11 53 L 17 53 L 17 52 L 11 52 z M 42 52 L 42 53 L 47 53 L 47 52 L 42 52 z M 8 54 L 8 55 L 11 55 L 11 54 L 8 54 z M 47 54 L 47 55 L 50 55 L 50 54 L 47 54 z"/>
 <path style="fill:#df574d" d="m 14,15 v 14 h 19 v -3 h 3 v -8 h -3 v -3 z m 0,17 v 3 h 3 v -3 z m 25,0 v 3 h 3 v -3 z"/>
 <path style="fill:#ff90b8" d="m 48,7 v 5 h 5 V 7 Z M 17,18 v 8 h 16 v -8 z"/>
 <path style="fill:#cccccc" d="m 23,6 v 3 h 3 V 6 Z m 11,0 v 3 h 5 V 6 Z m 5,3 v 3 h 3 V 9 Z m 3,3 v 3 h 3 V 12 Z M 17,9 v 3 h 3 V 9 Z m 25,14 v 3 h 3 v -3 z"/>
 <path style="fill:#eeeeee" d="m 23,9 v 3 h -3 v 3 h 3 13 v 11 3 h 3 v -3 h 3 V 12 H 36 V 9 Z M 36,29 H 20 v 3 h 16 z"/>
 <path style="opacity:0.2" d="m 17,19 v 8 h 3 v -8 z m 10,0 v 8 h 3 v -8 z"/>
 <path style="fill:#3f3f3f" d="m 17,18 v 8 h 3 v -8 z m 10,0 v 8 h 3 v -8 z"/>
 <path style="fill:#ff90b8" d="m 17,55 v 3 h 8 v -3 z m 11,0 v 3 h 11 v -3 z"/>
 <path style="fill:#50beee" d="m 20,35 v 2 3 3 3 H 30 V 43 H 23.636364 V 40 H 30 v -3 -2 z"/>
 <path style="fill:#248afd" d="m 17,35 v 5 h 3 v -5 z m 13,0 v 5 h 6 v -5 z m -13,8 v 3 h 3 v -3 z m 13,0 v 3 h 6 v -3 z"/>
 <path style="opacity:0.2" d="m 36,36 v 5 H 26 v 3 h 10 v 3 h 3 8 v -3 -3 h -8 v -5 z m -25,5 v 3 h 9 v -3 z"/>
 <path style="fill:#008080" d="m 36,35 v 5 H 26 v 3 h 10 v 3 h 3 8 v -3 -3 h -8 v -5 z m -25,5 v 3 h 9 v -3 z"/>
 <path style="opacity:0.1" d="m 26,7 v 3 h 8 V 7 Z m -6,3 v 3 h 3 v -3 z m 0,3 h -3 v 3 h 3 z m 16,-3 v 3 h 3 v -3 z m -3,6 v 3 h 3 v -3 z m 9,0 v 8 h 3 v -8 z m -9,11 v 3 h 3 v -3 z m 3,3 v 3 h 3 v -3 z m 3,0 h 3 v -3 h -3 z m -22,0 v 3 h 3 v -3 z m 25,3 v 3 h -3 v 5 h 3 3 2 v -5 -3 h -2 z m -31,3 v 5 h 3 v -5 z m 9,2 v 3 3 h 3 3 v -3 h -3 v -3 z m -9,6 v 3 h 3 v -3 z m 8,6 v 3 h 3 3 v -3 h -3 z m 9,0 v 3 h 6 5 v -3 h -5 z"/>
 <path style="fill:#79de7d" d="m 26,6 v 3 h 8 V 6 Z m -6,3 v 3 h 3 V 9 Z m 0,3 h -3 v 3 h 3 z M 36,9 v 3 h 3 V 9 Z m -3,6 v 3 h 3 v -3 z m 9,0 v 8 h 3 v -8 z m -9,11 v 3 h 3 v -3 z m 3,3 v 3 h 3 v -3 z m 3,0 h 3 v -3 h -3 z m -22,0 v 3 h 3 v -3 z m 25,3 v 3 h -3 v 5 h 3 3 2 v -5 -3 h -2 z m -31,3 v 5 h 3 v -5 z m 9,2 v 3 3 h 3 3 v -3 h -3 v -3 z m -9,6 v 3 h 3 v -3 z m 8,6 v 3 h 3 3 v -3 h -3 z m 9,0 v 3 h 6 5 v -3 h -5 z"/>
</svg>
